X: 10755
T: Dr. Iain MacAonghais
R: jig
M: 6/8
K: Amixolydian
|:B|A>dd {c}d2e|f>aa f>ge|f>dB B<Bc|d>dd e>dB|
A>dd {c}d2e|f>aa f>ge|f>dB A>df|1 e>dd {c}d2:|2 e>dd {c}e2||
|:e|f3- f>dB|f>dB- B>ff|f>dB e>cA|e>cA- A>ee|
f>dB f>dB-|B>ff {g}f>dB|e>dB A>df|e>dd {c}d2:|
|:B|A>AA B<BA|B>BB d<dA|f>AA B<BA|f>AA d>BA|
B>BB d<dA|f>AA B<BA|f>dB A>df|e>dd {c}d2:|
f|{g}a2f a>dd|d<dd d>BA|B>BB d<dA|f>AA d>BA|
f<af a>dd|d<dd d>BA|f>dB A>df|e>dd d2f|
{g}a2f a>dd|d<dd d>BA|f>AA d<dd|d<dd d>BA|
B<BB c<cA|f>AA d<dA|f>ff afa|e>dd {c}d2||

